packages/ui/src/components/icon-v2/icons/xmark-circle-solid.svg

<svg viewBox="0 0 16 16" fill="none" xmlns="http://www.w3.org/2000/svg">
<path fill-rule="evenodd" clip-rule="evenodd" d="M8 2C11.3137 2 14 4.68629 14 8C14 11.3137 11.3137 14 8 14C4.68629 14 2 11.3137 2 8C2 4.68629 4.68629 2 8 2ZM10.0518 5.94922C9.88109 5.77855 9.61687 5.7571 9.42285 5.88477L9.34473 5.94922L8.00098 7.29297L6.65723 5.94922L6.5791 5.88477C6.38514 5.75668 6.12107 5.77863 5.9502 5.94922C5.77933 6.12008 5.75758 6.38405 5.88574 6.57812L5.9502 6.65625L7.29395 8L5.9502 9.34375C5.75515 9.53903 5.75501 9.85559 5.9502 10.0508C6.14541 10.2457 6.46204 10.2457 6.65723 10.0508L8.00098 8.70703L9.34473 10.0508L9.42285 10.1143C9.61691 10.2423 9.88095 10.2216 10.0518 10.0508C10.2223 9.87992 10.2433 9.61583 10.1152 9.42188L10.0518 9.34375L8.70801 8L10.0518 6.65625L10.1152 6.57812C10.2433 6.38416 10.2223 6.12006 10.0518 5.94922Z" fill="currentColor"/>
</svg>

<svg xmlns="http://www.w3.org/2000/svg" fill="none" viewBox="0 0 16 16"><path fill="currentColor" fill-rule="evenodd" d="M8 2a6 6 0 1 1 0 12A6 6 0 0 1 8 2m2.052 3.95a.5.5 0 0 0-.63-.065l-.077.064L8 7.293 6.657 5.949l-.078-.064a.501.501 0 0 0-.693.693l.064.078L7.294 8 5.95 9.344a.5.5 0 0 0 .707.707l1.344-1.344 1.344 1.344.078.063a.5.5 0 0 0 .692-.692l-.063-.078L8.708 8l1.344-1.344.063-.078a.5.5 0 0 0-.063-.629" clip-rule="evenodd"/></svg>
